Adwaita++/places/16/folder-open.svg

<svg height="16" width="16.001" xmlns="http://www.w3.org/2000/svg">
  <g fill="#474747">
    <path d="m1 1c-.55228475 0-1 .4477153-1 1v11s-.014.459.23.947c.246.489.938 1.053 1.77 1.053h1.832c.1079351.01783.2180649.01783.326 0h9.842s.459.014.947-.23c.489-.245 1.053-.937 1.053-1.77v-4l-13-.0196669v4.0196669h-1v-10h3.586l1.707 1.707c.1874927.1875494.4418052.2929434.707.293h5c1.333333 0 1.333333-2 0-2h-4.586l-1.707-1.707c-.1874927-.1875494-.4418052-.2929434-.707-.293z" fill-rule="evenodd"/>
    <path d="m1 6h1s0-1 1-1h6l-3-3h-5z" fill-rule="evenodd"/>
    <path d="m13 4h1v1h-1z"/>
  </g>
</svg>

<?xml version="1.0" encoding="UTF-8" standalone="no"?>
<svg
   xmlns:dc="http://purl.org/dc/elements/1.1/"
   xmlns:cc="http://creativecommons.org/ns#"
   xmlns:rdf="http://www.w3.org/1999/02/22-rdf-syntax-ns#"
   xmlns:svg="http://www.w3.org/2000/svg"
   xmlns="http://www.w3.org/2000/svg"
   xmlns:sodipodi="http://sodipodi.sourceforge.net/DTD/sodipodi-0.dtd"
   xmlns:inkscape="http://www.inkscape.org/namespaces/inkscape"
   width="16.001"
   height="16"
   version="1.1"
   id="svg10"
   sodipodi:docname="folder-open-symbolic.svg"
   inkscape:version="0.92.3 (2405546, 2018-03-11)">
  <metadata
     id="metadata16">
    <rdf:RDF>
      <cc:Work
         rdf:about="">
        <dc:format>image/svg+xml</dc:format>
        <dc:type
           rdf:resource="http://purl.org/dc/dcmitype/StillImage" />
        <dc:title></dc:title>
      </cc:Work>
    </rdf:RDF>
  </metadata>
  <defs
     id="defs14" />
  <sodipodi:namedview
     pagecolor="#ffffff"
     bordercolor="#666666"
     borderopacity="1"
     objecttolerance="10"
     gridtolerance="10"
     guidetolerance="10"
     inkscape:pageopacity="0"
     inkscape:pageshadow="2"
     inkscape:window-width="1920"
     inkscape:window-height="1009"
     id="namedview12"
     showgrid="true"
     inkscape:zoom="59.585936"
     inkscape:cx="7.9999258"
     inkscape:cy="7.993313"
     inkscape:window-x="0"
     inkscape:window-y="34"
     inkscape:window-maximized="1"
     inkscape:current-layer="g8">
    <inkscape:grid
       type="xygrid"
       id="grid4527" />
  </sodipodi:namedview>
  <g
     fill="#474747"
     id="g8">
    <path
       d="M 1,1 C 0.44771525,1 0,1.4477153 0,2 v 11 c 0,0 -0.014,0.459 0.23,0.947 C 0.476,14.436 1.168,15 2,15 h 1.832 c 0.1079351,0.01783 0.2180649,0.01783 0.326,0 H 14 c 0,0 0.459,0.014 0.947,-0.23 C 15.436,14.525 16,13.833 16,13 V 9 L 3,8.9803331 V 13 H 2 V 3 H 5.586 L 7.293,4.707 C 7.4804927,4.8945494 7.7348052,4.9999434 8,5 h 5 c 1.333333,0 1.333333,-2 0,-2 H 8.414 L 6.707,1.293 C 6.5195073,1.1054506 6.2651948,1.0000566 6,1 Z"
       style="color:#000000;font-weight:400;line-height:normal;font-family:sans-serif;font-variant-ligatures:normal;font-variant-position:normal;font-variant-caps:normal;font-variant-numeric:normal;font-variant-alternates:normal;font-feature-settings:normal;text-indent:0;text-align:start;text-decoration:none;text-decoration-line:none;text-decoration-style:solid;text-decoration-color:#000000;text-transform:none;text-orientation:mixed;white-space:normal;shape-padding:0;overflow:visible;isolation:auto;mix-blend-mode:normal;fill-rule:evenodd"
       font-weight="400"
       overflow="visible"
       id="path2"
       inkscape:connector-curvature="0"
       sodipodi:nodetypes="ssccsccccsccccccccsscccs" />
    <path
       d="M1 6h1s0-1 1-1h6L6 2H1z"
       fill-rule="evenodd"
       id="path4" />
    <path
       d="m 13,4 h 1 v 1 h -1 z"
       id="path6"
       inkscape:connector-curvature="0"
       sodipodi:nodetypes="ccccc" />
  </g>
</svg>
